src/assets/images/tender-icon.svg

<?xml version="1.0" encoding="UTF-8" standalone="no"?>
<!DOCTYPE svg PUBLIC "-//W3C//DTD SVG 1.1//EN" "http://www.w3.org/Graphics/SVG/1.1/DTD/svg11.dtd">
<svg width="100%" height="100%" viewBox="0 0 150 150" version="1.1" xmlns="http://www.w3.org/2000/svg" xmlns:xlink="http://www.w3.org/1999/xlink" xml:space="preserve" xmlns:serif="http://www.serif.com/" style="fill-rule:evenodd;clip-rule:evenodd;stroke-linejoin:round;stroke-miterlimit:2;">
    <g id="Ebene_1">
        <g transform="matrix(1,0,0,1,-2,-2)">
            <path d="M8.12,147.88C8.12,101.98 8.18,56.09 8,10.19C8,6.1 8.83,5.26 12.94,5.28C55.653,5.46 98.363,5.46 141.07,5.28C145.18,5.28 146.07,6.1 146.01,10.19C145.823,54.49 145.823,98.79 146.01,143.09C146.01,147.18 145.18,148.02 141.07,148C96.75,147.81 52.44,147.88 8.12,147.88ZM78.34,22.38C79.34,37.54 75,50 61.17,58.51C57.77,60.59 56.96,61.01 55.71,57.18C54.563,53.729 53.697,50.191 53.12,46.6C52.12,40.14 49.93,39.26 44.43,42.94C36,48.6 30.65,56.65 26.59,65.77C15.632,89.933 23.824,118.76 45.85,133.55C63.8,145.73 84.37,146.31 103.3,135.67C121.19,125.61 131.57,109.43 132.01,88.3C132.71,54.69 115.36,31.3 88.41,13.54C85.78,11.81 82.8,8.44 79.28,10.69C77,12.14 78.73,16 78.39,19C78.28,19.9 78.34,21.44 78.34,22.38Z" style="fill:none;fill-rule:nonzero;"/>
            <path d="M78.34,22.38C78.326,18.464 78.64,14.554 79.28,10.69C79.85,8.04 85.78,11.81 88.41,13.54C115.41,31.25 133.162,55.92 132.462,89.53C132.461,89.554 132.461,89.578 132.46,89.602C131.997,110.694 121.17,125.621 103.3,135.67C84.37,146.31 63.8,145.73 45.85,133.55C30.707,123.382 21.918,106.891 21.58,89.53C21.426,81.639 23.166,73.321 26.59,65.77C30.65,56.65 36,48.6 44.43,42.94C49.93,39.26 52.12,40.14 53.12,46.6C53.697,50.191 54.563,53.729 55.71,57.18C57,61 57.77,60.59 61.17,58.51C75,50 78.39,36.84 78.34,22.38Z" style="fill:rgb(240,196,17);fill-rule:nonzero;"/>
        </g>
        <path d="M141.91,153L12.12,153L12.12,26L141.91,26L141.91,153ZM24.28,89.46L24.28,90C24.238,92.166 24.312,94.332 24.5,96.49C24.902,100.105 25.646,103.675 26.72,107.15C28.315,112.42 30.775,117.387 34,121.85C39.917,130.029 48.472,135.928 58.22,138.55C63.786,140.121 69.537,140.944 75.32,141C79.331,141.095 83.344,140.871 87.32,140.33C91.65,139.76 95.899,138.686 99.98,137.13C105.966,134.873 111.384,131.33 115.85,126.75C120.786,121.576 124.497,115.359 126.71,108.56C128.006,104.755 128.894,100.823 129.36,96.83C129.592,94.434 129.678,92.026 129.62,89.62C129.623,89.57 129.623,89.52 129.62,89.47L121.62,89.47C121.49,88.421 121.303,87.379 121.06,86.35C120.005,82.482 117.045,79.41 113.22,78.21C112.997,78.138 112.822,77.963 112.75,77.74C112.46,77.07 112.16,76.41 111.81,75.74C111.635,75.514 111.635,75.196 111.81,74.97L125.42,54.55L125.68,54.14L119,49.84L118.7,50.29L105.59,70C105.516,70.186 105.335,70.309 105.134,70.309C105.06,70.309 104.987,70.293 104.92,70.26C103.207,69.694 101.382,69.546 99.6,69.83C99,69.94 98.4,70.08 97.75,70.21L113.41,41.48L106.28,37.76L105.99,38.27C100.263,48.757 94.537,59.25 88.81,69.75C88.741,69.958 88.545,70.099 88.326,70.099C88.259,70.099 88.192,70.086 88.13,70.06C87.208,69.877 86.276,69.744 85.34,69.66C85.008,69.645 84.691,69.518 84.44,69.3C79.029,64.479 70.771,64.479 65.36,69.3C64.62,69.96 63.98,70.74 63.26,71.5C63.12,71.41 62.94,71.3 62.75,71.2C59.395,69.241 55.289,69.028 51.75,70.63C48.813,71.853 46.5,74.224 45.35,77.19C45.291,77.421 45.066,77.573 44.83,77.54C44.162,77.532 43.493,77.569 42.83,77.65C39.948,78.037 37.303,79.46 35.39,81.65C33.924,83.259 32.949,85.255 32.58,87.4C32.47,88.06 32.42,88.73 32.34,89.4L24.28,89.46Z" style="fill:none;fill-rule:nonzero;"/>
        <g transform="matrix(1,0,0,1,-2,-2)">
            <path d="M21.58,89.46L32.35,89.46C32.43,88.76 32.48,88.09 32.59,87.46C32.959,85.315 33.934,83.319 35.4,81.71C37.313,79.52 39.958,78.097 42.84,77.71C43.503,77.629 44.172,77.592 44.84,77.6C45.076,77.633 45.301,77.481 45.36,77.25C46.51,74.284 48.823,71.913 51.76,70.69C55.299,69.088 59.405,69.301 62.76,71.26C62.95,71.36 63.13,71.47 63.27,71.56C63.99,70.8 64.63,70.02 65.37,69.36C70.781,64.539 79.039,64.539 84.45,69.36C84.701,69.578 85.018,69.705 85.35,69.72C86.286,69.804 87.218,69.937 88.14,70.12C88.202,70.146 88.269,70.159 88.336,70.159C88.555,70.159 88.751,70.018 88.82,69.81C94.533,59.27 100.26,48.74 106,38.22L106.29,37.71L113.42,41.43L97.75,70.16C98.4,70.03 99,69.89 99.6,69.78C101.382,69.496 103.207,69.644 104.92,70.21C104.987,70.243 105.06,70.259 105.134,70.259C105.335,70.259 105.516,70.136 105.59,69.95L118.68,50.29L118.98,49.84L125.75,54.16L125.49,54.57L111.88,75C111.705,75.226 111.705,75.544 111.88,75.77C112.23,76.41 112.53,77.07 112.82,77.77C112.892,77.993 113.067,78.168 113.29,78.24C117.115,79.44 120.075,82.512 121.13,86.38C121.373,87.409 121.56,88.451 121.69,89.5L132.46,89.5C132.463,89.55 132.463,89.6 132.46,89.65C132.518,92.056 132.432,94.464 132.2,96.86C131.734,100.853 128.076,104.785 126.78,108.59C124.567,115.389 120.856,121.606 115.92,126.78C111.435,131.351 106,134.882 100,137.12C95.919,138.676 91.67,139.75 87.34,140.32C83.364,140.861 79.351,141.085 75.34,140.99C69.544,140.941 63.78,140.121 58.2,138.55C48.459,135.924 39.912,130.025 34,121.85C30.784,117.37 28.338,112.385 26.76,107.1C25.672,103.626 22.215,100.057 21.8,96.44C21.613,94.299 21.54,92.149 21.58,90L21.58,89.46ZM121.28,97.46L32.72,97.46C33.121,100.415 33.791,103.327 34.72,106.16C36.342,111.094 38.914,115.663 42.29,119.61C45.826,123.652 50.215,126.859 55.14,129C61.019,131.502 67.322,132.86 73.71,133C76.27,133.1 78.84,133 81.4,132.93C84.247,132.806 87.078,132.435 89.86,131.82C95.003,130.806 99.909,128.831 104.32,126C107.839,123.695 110.921,120.783 113.42,117.4C116.143,113.679 118.216,109.523 119.55,105.11C120.322,102.597 120.887,100.025 121.24,97.42L121.28,97.46ZM89.28,81.54C89.17,81.09 89.09,80.67 88.96,80.26C88.309,78.458 86.451,77.365 84.56,77.67C83.65,77.84 82.74,78.06 81.84,78.27C81.664,78.339 81.462,78.265 81.37,78.1C80.93,77.48 80.5,76.86 80.04,76.25C78.688,74.236 76.231,73.246 73.86,73.76C71.428,74.123 69.475,75.987 69,78.4C68.78,79.32 68.6,80.26 68.43,81.19C68.38,81.49 68.25,81.54 67.98,81.54C65.953,81.488 63.925,81.612 61.92,81.91C61.712,81.969 61.491,81.854 61.42,81.65C61.03,80.94 60.62,80.24 60.21,79.54C59.222,77.892 57.194,77.158 55.38,77.79C53.62,78.394 52.502,80.15 52.7,82C52.81,82.72 52.93,83.44 53.04,84.16C53.104,84.364 53.021,84.587 52.84,84.7C51.59,85.56 50.36,86.43 49.13,87.31C48.981,87.428 48.769,87.428 48.62,87.31C47.88,86.9 47.11,86.54 46.39,86.09C44.934,85.188 43.038,85.387 41.8,86.57C40.976,87.301 40.5,88.349 40.49,89.45L66.49,89.45C65.5,89.236 64.808,88.321 64.87,87.31C64.938,86.264 65.817,85.44 66.866,85.44C67.745,85.44 68.525,86.019 68.78,86.86C68.975,87.393 68.916,87.986 68.62,88.47C68.316,88.965 67.832,89.324 67.27,89.47L94.79,89.47C93.59,88.98 93.04,88.15 93.23,87.18C93.399,86.254 94.199,85.567 95.14,85.54C96.064,85.507 96.896,86.119 97.14,87.01C97.276,87.526 97.193,88.077 96.91,88.53C96.598,89.026 96.107,89.383 95.54,89.53L113.41,89.53C113.42,89.38 113.42,89.23 113.41,89.08C113.133,87.053 111.365,85.536 109.32,85.57L105.32,85.57L105.32,81.8C105.308,81.312 105.23,80.828 105.09,80.36C104.593,78.848 103.227,77.779 101.64,77.66C100.062,77.467 98.519,78.263 97.76,79.66C97.48,80.273 97.252,80.908 97.08,81.56L89.28,81.54Z" style="fill:rgb(51,51,51);fill-rule:nonzero;"/>
        </g>
        <g transform="matrix(1,0,0,1,-2,-2)">
            <path d="M121.24,97.42C120.885,100.012 120.319,102.57 119.55,105.07C118.216,109.483 116.143,113.639 113.42,117.36C110.921,120.743 107.839,123.655 104.32,125.96C99.912,128.805 95.006,130.794 89.86,131.82C87.078,132.435 84.247,132.806 81.4,132.93C78.84,133.02 76.27,133.1 73.71,133C67.322,132.86 61.019,131.502 55.14,129C50.218,126.855 45.832,123.644 42.3,119.6C38.924,115.653 36.352,111.084 34.73,106.15C33.801,103.317 33.131,100.405 32.73,97.45L121.24,97.42Z" style="fill:white;fill-rule:nonzero;"/>
        </g>
        <g transform="matrix(1,0,0,1,-2,-2)">
            <path d="M89.21,81.5L97.1,81.5C97.272,80.848 97.5,80.213 97.78,79.6C98.539,78.203 100.082,77.407 101.66,77.6C103.247,77.719 104.613,78.788 105.11,80.3C105.25,80.768 105.328,81.252 105.34,81.74L105.34,85.51L109.34,85.51C111.379,85.475 113.144,86.981 113.43,89C113.44,89.15 113.44,89.3 113.43,89.45L95.56,89.45C96.127,89.303 96.618,88.946 96.93,88.45C97.194,88.016 97.276,87.495 97.16,87C96.916,86.109 96.084,85.497 95.16,85.53C94.219,85.557 93.419,86.244 93.25,87.17C93.06,88.17 93.61,88.97 94.81,89.46L67.23,89.46C67.792,89.314 68.276,88.955 68.58,88.46C68.876,87.976 68.935,87.383 68.74,86.85C68.485,86.009 67.705,85.43 66.826,85.43C65.777,85.43 64.898,86.254 64.83,87.3C64.768,88.311 65.46,89.226 66.45,89.44L40.45,89.44C40.46,88.339 40.936,87.291 41.76,86.56C42.998,85.377 44.894,85.178 46.35,86.08C47.07,86.53 47.84,86.89 48.58,87.3C48.729,87.418 48.941,87.418 49.09,87.3C50.32,86.42 51.55,85.55 52.8,84.69C52.981,84.577 53.064,84.354 53,84.15C52.89,83.43 52.77,82.71 52.66,81.99C52.482,80.165 53.581,78.44 55.31,77.83C57.124,77.198 59.152,77.932 60.14,79.58C60.55,80.28 60.96,80.98 61.35,81.69C61.421,81.894 61.642,82.009 61.85,81.95C63.884,81.633 65.942,81.496 68,81.54C68.27,81.54 68.4,81.49 68.45,81.19C68.62,80.26 68.8,79.32 69.02,78.4C69.475,75.984 71.411,74.103 73.84,73.72C76.204,73.215 78.651,74.204 80,76.21C80.46,76.82 80.89,77.44 81.33,78.06C81.422,78.225 81.624,78.299 81.8,78.23C82.7,78.02 83.61,77.8 84.52,77.63C86.411,77.325 88.269,78.418 88.92,80.22C89,80.63 89.1,81.05 89.21,81.5ZM74.94,85.5C76.037,85.5 76.94,84.597 76.94,83.5C76.94,82.403 76.037,81.5 74.94,81.5C73.843,81.5 72.94,82.403 72.94,83.5C72.951,84.59 73.85,85.48 74.94,85.48L74.94,85.5Z" style="fill:white;fill-rule:nonzero;"/>
        </g>
        <g transform="matrix(1,0,0,1,-2,-2)">
            <path d="M74.94,85.48C73.843,85.48 72.94,84.577 72.94,83.48C72.94,82.383 73.843,81.48 74.94,81.48C76.037,81.48 76.94,82.383 76.94,83.48C76.94,84.577 76.037,85.48 74.94,85.48Z" style="fill:rgb(51,51,51);fill-rule:nonzero;"/>
        </g>
    </g>
    <g transform="matrix(1,0,0,0.851891,-2,19.5735)">
        <g id="Ebene_2">
            <path d="M132.2,89.08C132.2,117.08 107.49,145.66 77,145.66C46.51,145.66 21.8,117.06 21.8,89.08L132.2,89.08Z" style="fill:rgb(222,218,202);fill-rule:nonzero;"/>
        </g>
    </g>
</svg>

<svg xmlns="http://www.w3.org/2000/svg" xmlns:xlink="http://www.w3.org/1999/xlink" viewBox="0 0 150 150"><defs><style>.cls-1{fill:none;}.cls-2{clip-path:url(#clip-path);}.cls-3{fill:#f0c411;}.cls-4{fill:#333;}.cls-5{fill:#fff;}</style><clipPath id="clip-path"><rect class="cls-1" x="8" y="5.28" width="138.01" height="142.72"/></clipPath></defs><g id="Ebene_1" data-name="Ebene 1"><g class="cls-2"><path class="cls-1" d="M8.12,147.88c0-45.9.06-91.79-.12-137.69,0-4.09.83-4.93,4.94-4.91q64.07.27,128.13,0c4.11,0,5,.82,4.94,4.91q-.28,66.45,0,132.9c0,4.09-.83,4.93-4.94,4.91C96.75,147.81,52.44,147.88,8.12,147.88ZM78.34,22.38C79.34,37.54,75,50,61.17,58.51c-3.4,2.08-4.21,2.5-5.46-1.33A67.49,67.49,0,0,1,53.12,46.6c-1-6.46-3.19-7.34-8.69-3.66C36,48.6,30.65,56.65,26.59,65.77a54.52,54.52,0,0,0,19.26,67.78c17.95,12.18,38.52,12.76,57.45,2.12,17.89-10.06,28.27-26.24,28.71-47.37.7-33.61-16.65-57-43.6-74.76-2.63-1.73-5.61-5.1-9.13-2.85C77,12.14,78.73,16,78.39,19,78.28,19.9,78.34,21.44,78.34,22.38Z"/><path class="cls-3" d="M78.34,22.38a70,70,0,0,1,.94-11.69c.57-2.65,6.5,1.12,9.13,2.85,27,17.71,44.3,41.15,43.6,74.76-.44,21.13-10.82,37.31-28.71,47.37-18.93,10.64-39.5,10.06-57.45-2.12A54.52,54.52,0,0,1,26.59,65.77C30.65,56.65,36,48.6,44.43,42.94c5.5-3.68,7.69-2.8,8.69,3.66a67.49,67.49,0,0,0,2.59,10.58C57,61,57.77,60.59,61.17,58.51,75,50,78.39,36.84,78.34,22.38Z"/></g><path class="cls-1" d="M141.91,153H12.12V26H141.91ZM24.28,89.46V90a61.1,61.1,0,0,0,.22,6.49,57.7,57.7,0,0,0,2.22,10.66A49.66,49.66,0,0,0,34,121.85a44,44,0,0,0,24.22,16.7A65.28,65.28,0,0,0,75.32,141a75.77,75.77,0,0,0,12-.67,56.12,56.12,0,0,0,12.66-3.2,43.7,43.7,0,0,0,15.87-10.38,47.77,47.77,0,0,0,10.86-18.19,56.77,56.77,0,0,0,2.65-11.73,59.85,59.85,0,0,0,.26-7.21,1.17,1.17,0,0,0,0-.15h-8a29.31,29.31,0,0,0-.56-3.12,11.78,11.78,0,0,0-7.84-8.14.73.73,0,0,1-.47-.47c-.29-.67-.59-1.33-.94-2a.63.63,0,0,1,0-.77l13.61-20.42.26-.41L119,49.84l-.3.45L105.59,70a.49.49,0,0,1-.67.26,11.29,11.29,0,0,0-5.32-.43c-.6.11-1.2.25-1.85.38l15.66-28.73-7.13-3.72-.29.51Q97.4,54,88.81,69.75a.51.51,0,0,1-.68.31,26.39,26.39,0,0,0-2.79-.4,1.47,1.47,0,0,1-.9-.36,14.34,14.34,0,0,0-19.08,0c-.74.66-1.38,1.44-2.1,2.2-.14-.09-.32-.2-.51-.3a12,12,0,0,0-11-.57,11.68,11.68,0,0,0-6.4,6.56.47.47,0,0,1-.52.35,15,15,0,0,0-2,.11,12,12,0,0,0-7.44,4,11.41,11.41,0,0,0-2.81,5.75c-.11.66-.16,1.33-.24,2Z"/><path class="cls-4" d="M24.28,89.46h8.07c.08-.7.13-1.37.24-2a11.41,11.41,0,0,1,2.81-5.75,12,12,0,0,1,7.44-4,15,15,0,0,1,2-.11.47.47,0,0,0,.52-.35,11.68,11.68,0,0,1,6.4-6.56,12,12,0,0,1,11,.57c.19.1.37.21.51.3.72-.76,1.36-1.54,2.1-2.2a14.34,14.34,0,0,1,19.08,0,1.47,1.47,0,0,0,.9.36,26.39,26.39,0,0,1,2.79.4.51.51,0,0,0,.68-.31Q97.39,54,106,38.22l.29-.51,7.13,3.72L97.75,70.16c.65-.13,1.25-.27,1.85-.38a11.29,11.29,0,0,1,5.32.43.49.49,0,0,0,.67-.26l13.09-19.66.3-.45,6.77,4.32-.26.41L111.88,75a.63.63,0,0,0,0,.77c.35.64.65,1.3.94,2a.73.73,0,0,0,.47.47,11.78,11.78,0,0,1,7.84,8.14,29.31,29.31,0,0,1,.56,3.12h8a1.17,1.17,0,0,1,0,.15,59.85,59.85,0,0,1-.26,7.21,56.77,56.77,0,0,1-2.65,11.73,47.77,47.77,0,0,1-10.86,18.19A43.7,43.7,0,0,1,100,137.12a56.12,56.12,0,0,1-12.66,3.2,75.77,75.77,0,0,1-12,.67,65.28,65.28,0,0,1-17.14-2.44A44,44,0,0,1,34,121.85a49.66,49.66,0,0,1-7.24-14.75A57.7,57.7,0,0,1,24.5,96.44,61.1,61.1,0,0,1,24.28,90Zm97,8H32.72a49.15,49.15,0,0,0,2,8.7,39.82,39.82,0,0,0,7.57,13.45A36.3,36.3,0,0,0,55.14,129a50.22,50.22,0,0,0,18.57,4c2.56.1,5.13,0,7.69-.07a49.12,49.12,0,0,0,8.46-1.11A41.71,41.71,0,0,0,104.32,126a35.48,35.48,0,0,0,9.1-8.6,40.81,40.81,0,0,0,6.13-12.29A48.32,48.32,0,0,0,121.24,97.42Zm-32-15.92c-.11-.45-.19-.87-.32-1.28a4,4,0,0,0-4.4-2.59c-.91.17-1.82.39-2.72.6a.38.38,0,0,1-.47-.17c-.44-.62-.87-1.24-1.33-1.85a5.93,5.93,0,0,0-6.18-2.49A5.83,5.83,0,0,0,69,78.4c-.22.92-.4,1.86-.57,2.79-.05.3-.18.35-.45.35a35.05,35.05,0,0,0-6.06.37.41.41,0,0,1-.5-.26c-.39-.71-.8-1.41-1.21-2.11a4.07,4.07,0,0,0-4.83-1.75A4,4,0,0,0,52.7,82c.11.72.23,1.44.34,2.16a.47.47,0,0,1-.2.54c-1.25.86-2.48,1.73-3.71,2.61a.41.41,0,0,1-.51,0c-.74-.41-1.51-.77-2.23-1.22a3.77,3.77,0,0,0-4.59.48,3.9,3.9,0,0,0-1.31,2.88h26a2.06,2.06,0,0,1-1.62-2.14,2,2,0,0,1,3.91-.45,1.86,1.86,0,0,1-.16,1.61,2.25,2.25,0,0,1-1.35,1H94.79c-1.2-.49-1.75-1.32-1.56-2.29a2,2,0,0,1,1.91-1.64,2,2,0,0,1,2,1.47,1.94,1.94,0,0,1-.23,1.52,2.3,2.3,0,0,1-1.37,1h17.87a3.37,3.37,0,0,0,0-.45,4.06,4.06,0,0,0-4.09-3.51h-4c0-1.29,0-2.53,0-3.77a5.48,5.48,0,0,0-.23-1.44,3.94,3.94,0,0,0-3.45-2.7,3.88,3.88,0,0,0-3.88,2,11.81,11.81,0,0,0-.68,1.9Z"/><path class="cls-5" d="M121.24,97.42a48.32,48.32,0,0,1-1.69,7.65,40.81,40.81,0,0,1-6.13,12.29,35.48,35.48,0,0,1-9.1,8.6,41.71,41.71,0,0,1-14.46,5.86,49.12,49.12,0,0,1-8.46,1.11c-2.56.09-5.13.17-7.69.07a50.22,50.22,0,0,1-18.57-4,36.3,36.3,0,0,1-12.84-9.4,39.82,39.82,0,0,1-7.57-13.45,49.15,49.15,0,0,1-2-8.7Z"/><path class="cls-5" d="M89.21,81.5H97.1a11.81,11.81,0,0,1,.68-1.9,3.88,3.88,0,0,1,3.88-2,3.94,3.94,0,0,1,3.45,2.7,5.48,5.48,0,0,1,.23,1.44c0,1.24,0,2.48,0,3.77h4A4.06,4.06,0,0,1,113.43,89a3.37,3.37,0,0,1,0,.45H95.56a2.3,2.3,0,0,0,1.37-1A1.94,1.94,0,0,0,97.16,87a2,2,0,0,0-2-1.47,2,2,0,0,0-1.91,1.64c-.19,1,.36,1.8,1.56,2.29H67.23a2.25,2.25,0,0,0,1.35-1,1.86,1.86,0,0,0,.16-1.61,2,2,0,0,0-3.91.45,2.06,2.06,0,0,0,1.62,2.14h-26a3.9,3.9,0,0,1,1.31-2.88,3.77,3.77,0,0,1,4.59-.48c.72.45,1.49.81,2.23,1.22a.41.41,0,0,0,.51,0c1.23-.88,2.46-1.75,3.71-2.61a.47.47,0,0,0,.2-.54c-.11-.72-.23-1.44-.34-2.16a4,4,0,0,1,2.65-4.16,4.07,4.07,0,0,1,4.83,1.75c.41.7.82,1.4,1.21,2.11a.41.41,0,0,0,.5.26A35.05,35.05,0,0,1,68,81.54c.27,0,.4-.05.45-.35.17-.93.35-1.87.57-2.79a5.83,5.83,0,0,1,4.82-4.68A5.93,5.93,0,0,1,80,76.21c.46.61.89,1.23,1.33,1.85a.38.38,0,0,0,.47.17c.9-.21,1.81-.43,2.72-.6a4,4,0,0,1,4.4,2.59C89,80.63,89.1,81.05,89.21,81.5Zm-14.27,4a2,2,0,1,0-2-2A2,2,0,0,0,74.94,85.48Z"/><path d="M74.94,85.48a2,2,0,1,1,2-2A2,2,0,0,1,74.94,85.48Z"/></g><g id="Ebene_2" data-name="Ebene 2"><path class="cls-4" d="M132.2,89.08c0,28-24.71,56.58-55.2,56.58s-55.2-28.6-55.2-56.58Z"/></g></svg>
